!!!OTL: "Die Betrogene" ES WOLLTE EIN MAEDCHEN DIE LAEMMELEIN HUETEN
!!!ARE: Europa, Mitteleuropa, Deutschland, Niederrhein
!!!SCT: Z1071
!!!YEM: Copyright 1995, estate of Helmut Schaffrath.
**kern
*ICvox
*Ivox
*M6/8
*k[b-]
*F:
{8c
=1
8f
8c
8f
8a
8f
8a
=2
8cc
8dd
8cc
8a
8f}
{16f
16a
=3
4cc
8a
8b-
8g
8cc
=4
4a
4.r}
{8c
=5
8f
8c
8f
8a
8f
8a
=6
8cc
8dd
8cc
8a
8f}
{16f
16a
=7
4cc
8a
8b-
8g
8cc
=8
4a
4.r}
{8a
=9
8a
8g
8g
8g
8f
8f
=10
8a
8b-
16a
16g
4f}
{8b-
=11
8b-
8b-
8b-
8b-
8cc
8dd
=12
8dd
8cc
8cc
4cc}
{16cc
16ff
=13
8ff
8cc
8cc
8cc
8b-
8a
=14
4.b-
8g
8cc
8b-
=15
4a
4.r}
==
!!!AGN: Romanze, Ballade
!!!ONB: ESAC (Essen Associative Code) Database: ZUCCAL
!!!AMT: compound duple
!!!AIN: vox
!!!EED: Helmut Schaffrath
!!!EEV: 1.0
*-
